images/icons/selenium_powershell_icon.svg

<?xml version="1.0" encoding="UTF-8"?>
<svg xmlns="http://www.w3.org/2000/svg" xmlns:xlink="http://www.w3.org/1999/xlink" width="80pt" height="80pt" viewBox="0 0 80 80" version="1.1">
<g id="surface1">
<path style="fill:none;stroke-width:3.5977;stroke-linecap:butt;stroke-linejoin:miter;stroke:rgb(17.254902%,25.490196%,32.941176%);stroke-opacity:1;stroke-miterlimit:4;" d="M -248.398438 383.800781 L -240.898438 383.800781 " transform="matrix(1,0,0,1,265,-357)"/>
<path style=" stroke:none;fill-rule:nonzero;fill:rgb(89.803922%,37.647059%,41.176471%);fill-opacity:1;" d="M 1 7 L 57 7 L 57 51 L 1 51 Z M 1 7 "/>
<path style="fill:none;stroke-width:3.5977;stroke-linecap:butt;stroke-linejoin:miter;stroke:rgb(17.254902%,25.490196%,32.941176%);stroke-opacity:1;stroke-miterlimit:4;" d="M -246.199219 388.300781 L -238.601562 388.300781 " transform="matrix(1,0,0,1,265,-357)"/>
<path style="fill-rule:nonzero;fill:rgb(50.588235%,78.039216%,97.647059%);fill-opacity:1;stroke-width:2;stroke-linecap:butt;stroke-linejoin:miter;stroke:rgb(17.254902%,25.490196%,32.941176%);stroke-opacity:1;stroke-miterlimit:4;" d="M -255 373 L -197 373 L -197 419 L -255 419 Z M -255 373 " transform="matrix(1,0,0,1,265,-357)"/>
<path style="fill:none;stroke-width:2;stroke-linecap:butt;stroke-linejoin:miter;stroke:rgb(17.254902%,25.490196%,32.941176%);stroke-opacity:1;stroke-miterlimit:4;" d="M -246.101562 393.398438 L -238.101562 387.398438 L -246.101562 381.398438 " transform="matrix(1,0,0,1,265,-357)"/>
<path style="fill:none;stroke-width:2;stroke-linecap:butt;stroke-linejoin:miter;stroke:rgb(17.254902%,25.490196%,32.941176%);stroke-opacity:1;stroke-miterlimit:4;" d="M -232 393 L -220 393 " transform="matrix(1,0,0,1,265,-357)"/>
<path style="fill-rule:nonzero;fill:rgb(99.607843%,85.098039%,33.333333%);fill-opacity:1;stroke-width:2.3985;stroke-linecap:butt;stroke-linejoin:miter;stroke:rgb(17.254902%,25.490196%,32.941176%);stroke-opacity:1;stroke-miterlimit:4;" d="M -198.199219 401.101562 L -198.5 400.5 L -219.5 400.5 L -219.800781 401.101562 L -229.601562 417.398438 L -230 418 L -229.601562 418.601562 L -219.800781 434.898438 L -219.5 435.5 L -198.5 435.5 L -198.199219 434.898438 L -188.398438 418.601562 L -188 418 L -188.398438 417.398438 Z M -198.199219 401.101562 " transform="matrix(1,0,0,1,265,-357)"/>
<path style=" stroke:none;fill-rule:nonzero;fill:rgb(17.254902%,25.490196%,32.941176%);fill-opacity:1;" d="M 53.601562 69.898438 L 58.300781 69.898438 L 58.300781 67.5 C 58.5 67.398438 58.699219 67.398438 58.800781 67.300781 L 60.5 69 L 63.800781 65.699219 L 62.101562 64 C 62.199219 63.800781 62.300781 63.601562 62.300781 63.5 L 64.699219 63.5 L 64.699219 58.800781 L 62.300781 58.800781 C 62.199219 58.601562 62.199219 58.398438 62.101562 58.300781 L 63.800781 56.601562 L 60.5 53.300781 L 58.800781 55 C 58.601562 54.898438 58.398438 54.800781 58.300781 54.800781 L 58.300781 52.398438 L 53.601562 52.398438 L 53.601562 54.800781 C 53.398438 54.898438 53.199219 54.898438 53.101562 55 L 51.398438 53.300781 L 48.101562 56.601562 L 49.800781 58.300781 C 49.699219 58.5 49.601562 58.699219 49.601562 58.800781 L 47.199219 58.800781 L 47.199219 63.5 L 49.601562 63.5 C 49.699219 63.699219 49.699219 63.898438 49.800781 64 L 48.101562 65.699219 L 51.398438 69 L 53.101562 67.300781 C 53.300781 67.398438 53.5 67.5 53.601562 67.5 Z M 53.601562 69.898438 "/>
<path style=" stroke:none;fill-rule:nonzero;fill:rgb(99.607843%,85.098039%,33.333333%);fill-opacity:1;" d="M 55.898438 64.101562 C 57.601562 64.101562 58.898438 62.800781 58.898438 61.101562 C 58.898438 59.398438 57.601562 58.101562 55.898438 58.101562 C 54.199219 58.101562 52.898438 59.398438 52.898438 61.101562 C 52.898438 62.699219 54.300781 64.101562 55.898438 64.101562 Z M 55.898438 64.101562 "/>
</g>
</svg>

<svg xmlns="http://www.w3.org/2000/svg" width="80pt" height="80pt" viewBox="0 0 80 80"><path style="fill:none;stroke-width:3.5977;stroke-linecap:butt;stroke-linejoin:miter;stroke:#2c4154;stroke-opacity:1;stroke-miterlimit:4" d="M-248.398 383.8h7.5" transform="translate(265 -357)"/><path style="stroke:none;fill-rule:nonzero;fill:#e56069;fill-opacity:1" d="M1 7h56v44H1Zm0 0"/><path style="fill:none;stroke-width:3.5977;stroke-linecap:butt;stroke-linejoin:miter;stroke:#2c4154;stroke-opacity:1;stroke-miterlimit:4" d="M-246.2 388.3h7.598" transform="translate(265 -357)"/><path style="fill-rule:nonzero;fill:#81c7f9;fill-opacity:1;stroke-width:2;stroke-linecap:butt;stroke-linejoin:miter;stroke:#2c4154;stroke-opacity:1;stroke-miterlimit:4" d="M-255 373h58v46h-58Zm0 0" transform="translate(265 -357)"/><path style="fill:none;stroke-width:2;stroke-linecap:butt;stroke-linejoin:miter;stroke:#2c4154;stroke-opacity:1;stroke-miterlimit:4" d="m-246.102 393.398 8-6-8-6M-232 393h12" transform="translate(265 -357)"/><path style="fill-rule:nonzero;fill:#fed955;fill-opacity:1;stroke-width:2.3985;stroke-linecap:butt;stroke-linejoin:miter;stroke:#2c4154;stroke-opacity:1;stroke-miterlimit:4" d="m-198.2 401.102-.3-.602h-21l-.3.602-9.802 16.296-.398.602.398.602 9.801 16.296.301.602h21l.3-.602 9.802-16.296.398-.602-.398-.602Zm0 0" transform="translate(265 -357)"/><path style="stroke:none;fill-rule:nonzero;fill:#2c4154;fill-opacity:1" d="M53.602 69.898H58.3V67.5c.199-.102.398-.102.5-.2L60.5 69l3.3-3.3-1.698-1.7c.097-.2.199-.398.199-.5h2.398v-4.7h-2.398c-.102-.198-.102-.402-.2-.5l1.7-1.698L60.5 53.3 58.8 55c-.198-.102-.402-.2-.5-.2v-2.402h-4.698v2.403c-.204.097-.403.097-.5.199l-1.704-1.7-3.296 3.302L49.8 58.3c-.102.199-.2.398-.2.5H47.2V63.5h2.403c.097.2.097.398.199.5l-1.7 1.7 3.297 3.3 1.704-1.7c.199.098.398.2.5.2Zm0 0"/><path style="stroke:none;fill-rule:nonzero;fill:#fed955;fill-opacity:1" d="M55.898 64.102c1.704 0 3-1.301 3-3 0-1.704-1.296-3-3-3-1.699 0-3 1.296-3 3 0 1.597 1.403 3 3 3Zm0 0"/></svg>
